X:97
T:Shut the door. JGi.097
O:Tealby,Lincolnshire
M:6/8
L:1/8
Q:3/8=130
S:Joshua Gibbons MS,1823,Tealby,Lincs.
R:jig
Z:VMP/R.Greig, 2009
K:G
B2GF2G|D2GE2G|F2Ad2c|BAG FED|
B2GE2G|D2AE2G|FGA Bcd|edc B3:|
|:g2dB2d|e2cA2c|Bdc BAG|FAG FED|
g2dB2d|e2cA2c|Bdc BAG|DEF G2:|

